assets/Ring buoy/Flat/ring_buoy_flat.svg

<svg width="32" height="32" viewBox="0 0 32 32" fill="none" xmlns="http://www.w3.org/2000/svg">
<path d="M11.9592 5.71789C12.2197 5.49561 12.4877 5.21437 12.7516 4.93741L12.8182 4.86761C13.1118 4.55994 13.4124 4.24943 13.7408 3.96795C14.3959 3.40637 15.1163 3 15.9984 3C16.8804 3 17.6008 3.40637 18.2559 3.96795C18.5843 4.24943 18.885 4.55994 19.1785 4.86761L19.2451 4.93742C19.509 5.21438 19.777 5.49561 20.0375 5.71789C20.4967 6.1099 21.118 6.46496 21.6452 6.72888C22.172 6.99262 22.6516 7.18829 22.8493 7.25003L23.1474 6.29549C23.0226 6.25652 22.597 6.0871 22.0928 5.83468C21.589 5.58244 21.0534 5.27027 20.6867 4.95728C20.4674 4.77009 20.2343 4.52568 19.9578 4.23571L19.902 4.17726C19.6091 3.87027 19.2775 3.52646 18.9067 3.2087C18.1637 2.5718 17.2185 2 15.9984 2C14.7782 2 13.833 2.5718 13.09 3.2087C12.7192 3.52646 12.3876 3.87027 12.0947 4.17726L12.0389 4.23571C11.7624 4.52568 11.5293 4.77009 11.31 4.95728C10.9433 5.27027 10.4077 5.58244 9.90386 5.83468C9.39966 6.0871 8.97411 6.25652 8.84931 6.29549L9.14739 7.25003C9.34511 7.18829 9.82471 6.99262 10.3515 6.72888C10.8787 6.46496 11.5 6.1099 11.9592 5.71789ZM20.0338 26.3132C19.7845 26.5301 19.527 26.7997 19.2724 27.0662L19.1792 27.1638C18.8864 27.4695 18.586 27.7768 18.2582 28.0544C17.6046 28.6079 16.8833 29.0078 15.9984 29.0078C15.1134 29.0078 14.3921 28.6079 13.7385 28.0544C13.4107 27.7768 13.1103 27.4695 12.8176 27.1638L12.7243 27.0662C12.4697 26.7997 12.2122 26.5301 11.9629 26.3132C11.5037 25.9136 10.8824 25.5516 10.355 25.2824C9.82813 25.0135 9.34822 24.8139 9.15003 24.7508L8.84667 25.7037C8.97099 25.7433 9.39624 25.9158 9.9004 26.1731C10.404 26.4302 10.9396 26.7484 11.3064 27.0675C11.5185 27.2521 11.742 27.4859 12.0037 27.7597L12.0038 27.7597L12.0953 27.8554C12.3891 28.1622 12.7209 28.5031 13.0922 28.8175C13.8368 29.4482 14.7812 30.0078 15.9984 30.0078C17.2155 30.0078 18.1599 29.4482 18.9045 28.8175C19.2758 28.5031 19.6076 28.1622 19.9014 27.8554L19.993 27.7597C20.2546 27.4859 20.4782 27.2521 20.6903 27.0675C21.0571 26.7484 21.5927 26.4302 22.0963 26.1731C22.6005 25.9158 23.0257 25.7433 23.15 25.7037L22.8467 24.7508C22.6485 24.8139 22.1686 25.0135 21.6417 25.2824C21.1143 25.5516 20.493 25.9136 20.0338 26.3132ZM4 16.0001C4 17.9179 4.83845 19.0303 5.73314 20.0304C6.11614 20.4586 6.5625 21.0213 6.9262 21.5171C7.10833 21.7653 7.27317 22.0014 7.40095 22.1993C7.51579 22.3772 7.636 22.5766 7.68579 22.7287L6.73541 23.0398C6.73607 23.0419 6.73599 23.0417 6.73479 23.039C6.7316 23.032 6.72049 23.0075 6.69444 22.9608C6.66243 22.9034 6.61776 22.8299 6.56085 22.7418C6.44729 22.5659 6.29475 22.3469 6.11992 22.1086C5.76968 21.6312 5.34377 21.095 4.98785 20.6972C4.03524 19.6323 3 18.2866 3 16.0001C3 13.7136 4.03524 12.3678 4.98785 11.303C5.33634 10.9135 5.75514 10.3502 6.10299 9.83825C6.27588 9.58379 6.4275 9.34749 6.54087 9.15801C6.59767 9.06308 6.64298 8.98303 6.67594 8.92023C6.70834 8.85849 6.72026 8.8294 6.72215 8.82478L6.72216 8.82478C6.72239 8.82421 6.72247 8.82401 6.72242 8.82418L7.6728 9.13525C7.62614 9.27782 7.51367 9.47978 7.39901 9.67143C7.27347 9.88125 7.11096 10.1341 6.93013 10.4002C6.57055 10.9295 6.12357 11.5333 5.73314 11.9697C4.83845 12.9698 4 14.0822 4 16.0001ZM26.2838 20.0289C27.1865 19.0283 28.0312 17.9164 28.0312 16.0001C28.0312 14.0837 27.1865 12.9718 26.2838 11.9713C25.8902 11.5349 25.4395 10.9311 25.0768 10.4019C24.8945 10.1357 24.7306 9.88285 24.604 9.67302C24.4884 9.48145 24.3749 9.27931 24.3277 9.13643L25.2773 8.823C25.2773 8.82279 25.2774 8.82301 25.2776 8.82368C25.2797 8.82857 25.2917 8.85759 25.3241 8.9187C25.3573 8.98147 25.403 9.0615 25.4602 9.15643C25.5745 9.34589 25.7274 9.58217 25.9018 9.83664C26.2525 10.3486 26.6749 10.9118 27.0264 11.3015C27.9866 12.3659 29.0312 13.7121 29.0312 16.0001C29.0312 18.2881 27.9866 19.6343 27.0264 20.6987C26.6674 21.0966 26.2379 21.6328 25.8847 22.1102C25.7084 22.3485 25.5546 22.5675 25.4401 22.7434C25.3827 22.8315 25.3377 22.905 25.3054 22.9624C25.2793 23.0088 25.2681 23.0332 25.2649 23.0403C25.2636 23.043 25.2635 23.0431 25.2642 23.041L24.3146 22.7276C24.365 22.5751 24.4863 22.3755 24.6021 22.1977C24.7309 21.9998 24.8971 21.7637 25.0808 21.5155C25.4476 21.0197 25.8977 20.457 26.2838 20.0289Z" fill="#A7A8B7"/>
<path d="M15.9984 26.9797C22.0735 26.9797 26.9984 22.0549 26.9984 15.9797C26.9984 9.9046 22.0735 4.97974 15.9984 4.97974C9.92322 4.97974 4.99835 9.9046 4.99835 15.9797C4.99835 22.0549 9.92322 26.9797 15.9984 26.9797ZM15.9984 22.2654C15.0999 22.2654 14.2455 22.077 13.4725 21.7374C12.6987 22.2654 11.3431 22.1434 10.8725 21.7374C10.4008 21.3303 10.1254 20.4143 10.6778 19.3282C10.0664 18.3588 9.71264 17.2106 9.71264 15.9797C9.71264 14.7489 10.0664 13.6007 10.6778 12.6313C10.3191 11.6153 10.6024 10.7736 11.0662 10.3702C11.5414 9.95688 12.671 9.69402 13.4725 10.2221C14.2455 9.88252 15.0999 9.69402 15.9984 9.69402C16.8968 9.69402 17.7512 9.88252 18.5242 10.2221C19.5607 9.84449 20.4849 9.74136 20.9995 10.2221C21.394 10.5906 21.6636 11.8367 21.3189 12.6313C21.9303 13.6007 22.2841 14.7489 22.2841 15.9797C22.2841 17.2106 21.9303 18.3588 21.3189 19.3282C21.8573 20.1652 21.4394 21.3453 20.9995 21.7374C20.5105 22.1732 19.533 22.4065 18.5242 21.7374C17.7512 22.077 16.8968 22.2654 15.9984 22.2654Z" fill="#F92F60"/>
<path d="M6.82073 8.9568C6.4302 8.56628 6.4302 7.93311 6.82073 7.54259L8.18443 6.17888C8.57496 5.78836 9.20812 5.78836 9.59864 6.17888L13.5911 10.1713C12.343 10.6892 11.2978 11.5977 10.6082 12.7442L6.82073 8.9568ZM25.1661 22.9988C25.5566 23.3893 25.5566 24.0225 25.1661 24.413L23.8024 25.7767C23.4119 26.1672 22.7787 26.1672 22.3882 25.7767L18.3957 21.7842C19.6438 21.2664 20.689 20.3579 21.3787 19.2113L25.1661 22.9988ZM25.1661 7.54259C25.5566 7.93311 25.5566 8.56628 25.1661 8.9568L21.3787 12.7442C20.689 11.5977 19.6438 10.6892 18.3957 10.1713L22.3882 6.17888C22.7787 5.78836 23.4119 5.78836 23.8024 6.17888L25.1661 7.54259ZM6.82073 22.9988C6.4302 23.3893 6.4302 24.0225 6.82073 24.413L8.18443 25.7767C8.57496 26.1672 9.20812 26.1672 9.59864 25.7767L13.5911 21.7842C12.343 21.2664 11.2978 20.3579 10.6082 19.2113L6.82073 22.9988Z" fill="white"/>
</svg>

<svg xmlns="http://www.w3.org/2000/svg" width="32" height="32" fill="none"><path fill="#A7A8B7" d="M11.96 5.718c.26-.222.528-.504.792-.78l.066-.07c.294-.308.594-.619.923-.9.655-.562 1.375-.968 2.257-.968.882 0 1.603.406 2.258.968.328.281.629.592.922.9l.067.07c.264.276.532.558.793.78.459.392 1.08.747 1.607 1.01.527.265 1.007.46 1.204.522l.298-.955a9.312 9.312 0 0 1-1.054-.46c-.504-.253-1.04-.565-1.406-.878-.22-.187-.453-.431-.73-.721l-.055-.059c-.293-.307-.625-.65-.995-.968C18.164 2.572 17.218 2 15.998 2c-1.22 0-2.165.572-2.908 1.209-.37.317-.702.661-.995.968l-.056.059c-.277.29-.51.534-.729.721-.367.313-.902.625-1.406.878-.504.252-.93.422-1.055.46l.298.955c.198-.062.678-.257 1.204-.521.528-.264 1.149-.62 1.608-1.011Zm8.074 20.595c-.25.217-.507.487-.762.753l-.093.098c-.293.305-.593.613-.92.89-.654.554-1.376.954-2.26.954-.886 0-1.607-.4-2.26-.954a12.274 12.274 0 0 1-.921-.89l-.094-.098c-.254-.266-.512-.536-.761-.753-.46-.4-1.08-.761-1.608-1.03a9.91 9.91 0 0 0-1.205-.532l-.303.953c.124.04.55.212 1.053.47.504.256 1.04.574 1.406.893.213.185.436.419.698.693l.091.095c.294.307.626.648.997.962.745.631 1.69 1.19 2.906 1.19 1.217 0 2.162-.559 2.906-1.19.372-.314.704-.655.997-.962l.092-.095c.262-.274.485-.508.697-.693.367-.319.903-.637 1.406-.894.505-.257.93-.43 1.054-.47l-.303-.952a9.91 9.91 0 0 0-1.205.531c-.528.27-1.149.632-1.608 1.031ZM4 16c0 1.918.838 3.03 1.733 4.03.383.429.83.991 1.193 1.487.182.248.347.484.475.682.115.178.235.378.285.53l-.95.31c0 .003 0 .003-.001 0-.003-.007-.015-.032-.04-.078a4.109 4.109 0 0 0-.134-.22 13.48 13.48 0 0 0-.441-.632 20.118 20.118 0 0 0-1.132-1.412C4.035 19.632 3 18.287 3 16c0-2.286 1.035-3.632 1.988-4.697.348-.39.767-.953 1.115-1.465.173-.254.325-.49.438-.68a5.07 5.07 0 0 0 .135-.238c.032-.062.044-.09.046-.095 0 0 0-.001 0 0l.95.31a3.14 3.14 0 0 1-.273.536c-.126.21-.288.463-.469.73-.36.529-.806 1.132-1.197 1.569C4.838 12.97 4 14.082 4 16Zm22.284 4.029c.902-1 1.747-2.113 1.747-4.029s-.845-3.028-1.747-4.029a16.126 16.126 0 0 1-1.207-1.57 15.606 15.606 0 0 1-.473-.728 3.132 3.132 0 0 1-.276-.537l.95-.313c.002.006.014.035.046.096.033.062.079.143.136.237.114.19.267.426.442.68.35.513.773 1.076 1.124 1.466.96 1.064 2.005 2.41 2.005 4.698 0 2.288-1.044 3.634-2.005 4.699-.359.398-.788.934-1.141 1.411-.177.239-.33.457-.445.633a4.107 4.107 0 0 0-.135.22.997.997 0 0 0-.04.078l-.95-.313c.05-.153.171-.353.287-.53.129-.198.295-.434.479-.683.367-.495.817-1.058 1.203-1.486Z"/><path fill="#F92F60" d="M15.998 26.98c6.075 0 11-4.925 11-11s-4.925-11-11-11-11 4.925-11 11 4.925 11 11 11Zm0-4.715a6.264 6.264 0 0 1-2.525-.528c-.774.528-2.13.406-2.6 0-.472-.407-.748-1.323-.195-2.409a6.256 6.256 0 0 1-.965-3.348c0-1.231.353-2.38.965-3.349-.359-1.016-.076-1.857.388-2.26.475-.414 1.605-.677 2.406-.149a6.265 6.265 0 0 1 2.526-.528c.899 0 1.753.189 2.526.528 1.037-.378 1.96-.48 2.476 0 .394.369.664 1.615.319 2.41.611.969.965 2.117.965 3.348 0 1.23-.354 2.379-.965 3.348.538.837.12 2.017-.32 2.41-.488.435-1.466.669-2.475 0a6.264 6.264 0 0 1-2.526.527Z"/><path fill="#fff" d="M6.82 8.957a1 1 0 0 1 0-1.414l1.364-1.364a1 1 0 0 1 1.415 0l3.992 3.992a6.31 6.31 0 0 0-2.983 2.573L6.821 8.957Zm18.346 14.042a1 1 0 0 1 0 1.414l-1.364 1.364a1 1 0 0 1-1.414 0l-3.992-3.993a6.31 6.31 0 0 0 2.983-2.573L25.166 23Zm0-15.456a1 1 0 0 1 0 1.414l-3.787 3.787a6.31 6.31 0 0 0-2.983-2.573l3.992-3.992a1 1 0 0 1 1.414 0l1.364 1.364ZM6.821 22.999a1 1 0 0 0 0 1.414l1.363 1.364a1 1 0 0 0 1.415 0l3.992-3.993a6.309 6.309 0 0 1-2.983-2.573L6.821 23Z"/></svg>
